scalable/status/kbd-compose-mixed.svg

<svg height="16.009432" viewBox="0 0 16.021761 16.009432" width="16.021761" xmlns="http://www.w3.org/2000/svg"><g fill="#bebebe" stroke-dashoffset="2078.74" stroke-linecap="round" stroke-linejoin="round" stroke-miterlimit="0"><path d="m13.648438 2.3515625c-1.448065-1.44557805-3.444761-2.34179688-5.648438-2.34179687-4.4123335 0-8 3.58766647-8 7.99999997 0 2.2036774.89621882 4.2003724 2.3417969 5.6484374l1.6582031-1.658203h-1.1835938v-8h3.1875c-1.2152806.9132864-2.0039062 2.367401-2.0039062 4 0 1.1229022.379441 2.156056 1.0078125 2.992188l.7089844-.708985c-.4500903-.6466987-.7167969-1.4321965-.7167969-2.283203 0-2.0456836 1.5223791-3.7220187 3.5-3.9667969v3.4667969l1-1v-2.4667969c.658339.0814853 1.263178.3259613 1.78125.6855469l.712891-.7128906c-.835981-.6284586-1.870948-1.0058594-2.994141-1.0058594h-5.890625c1.2610236-1.2311291 2.9850486-1.9902344 4.890625-1.9902344 1.9334405 0 3.679689.7818024 4.945312 2.0449219zm-11.8320318 2.3710937v6.5742188c-.5207679-.979563-.8164062-2.0982945-.8164062-3.2871094s.2956383-2.3075466.8164062-3.2871094z" opacity=".35"/><path d="m13.648438 2.3515625-.703126.703125c1.268906 1.2663952 2.054688 3.0166236 2.054688 4.9550781 0 3.8718944-3.128105 7.0000004-7 7.0000004-1.9155308 0-3.6474302-.767241-4.9101562-2.009766h5.9101562c2.755493 0 5-2.244507 5-5 0-1.6323-.790956-3.0808223-2.005859-3.9941406l-.712891.7128906c1.038193.7205932 1.71875 1.9165633 1.71875 3.28125 0 2.045684-1.522379 3.722019-3.5 3.966797v-5.466797l-1 1v4.466797c-1.1549287-.14295-2.1513481-.775732-2.7832031-1.683594l-.7089844.708985c.2852243.379528.6166835.722684.9960937 1.007812h-2.0039062l-1.6582031 1.658203c1.4488442 1.451337 3.4495469 2.351563 5.6582031 2.351563 4.412334 0 8-3.587666 8-8.0000004 0-2.2086562-.900226-4.2093589-2.351562-5.6582031z"/></g></svg>

<?xml version="1.0" encoding="UTF-8" standalone="no"?>
<svg
   height="16.009432"
   viewBox="0 0 16.021761 16.009432"
   width="16.021761"
   version="1.1"
   id="svg6"
   sodipodi:docname="kbd-compose-mixed.svg"
   inkscape:version="1.2.2 (b0a8486541, 2022-12-01)"
   xmlns:inkscape="http://www.inkscape.org/namespaces/inkscape"
   xmlns:sodipodi="http://sodipodi.sourceforge.net/DTD/sodipodi-0.dtd"
   xmlns="http://www.w3.org/2000/svg"
   xmlns:svg="http://www.w3.org/2000/svg">
  <defs
     id="defs10" />
  <sodipodi:namedview
     id="namedview8"
     pagecolor="#505050"
     bordercolor="#eeeeee"
     borderopacity="1"
     inkscape:showpageshadow="0"
     inkscape:pageopacity="0"
     inkscape:pagecheckerboard="0"
     inkscape:deskcolor="#505050"
     showgrid="false"
     inkscape:zoom="32"
     inkscape:cx="14.875"
     inkscape:cy="10.046875"
     inkscape:window-width="1920"
     inkscape:window-height="1138"
     inkscape:window-x="1920"
     inkscape:window-y="38"
     inkscape:window-maximized="1"
     inkscape:current-layer="svg6" />
  <path
     id="circle2"
     style="color:#000000;fill:#bebebe;stroke-linecap:round;stroke-linejoin:round;stroke-miterlimit:0;stroke-dashoffset:2078.74;-inkscape-stroke:none;opacity:0.35"
     d="M 13.648438 2.3515625 C 12.200373 0.90598445 10.203677 0.00976562 8 0.009765625 C 3.5876665 0.009765625 0 3.5974321 0 8.0097656 C 0 10.213443 0.89621882 12.210138 2.3417969 13.658203 L 4 12 L 2.8164062 12 L 2.8164062 4 L 6.0039062 4 C 4.7886256 4.9132864 4 6.367401 4 8 C 4 9.1229022 4.379441 10.156056 5.0078125 10.992188 L 5.7167969 10.283203 C 5.2667066 9.6365043 5 8.8510065 5 8 C 5 5.9543164 6.5223791 4.2779813 8.5 4.0332031 L 8.5 7.5 L 9.5 6.5 L 9.5 4.0332031 C 10.158339 4.1146884 10.763178 4.3591644 11.28125 4.71875 L 11.994141 4.0058594 C 11.15816 3.3774008 10.123193 3 9 3 L 3.109375 3 C 4.3703986 1.7688709 6.0944236 1.0097656 8 1.0097656 C 9.9334405 1.0097656 11.679689 1.791568 12.945312 3.0546875 L 13.648438 2.3515625 z M 1.8164062 4.7226562 L 1.8164062 11.296875 C 1.2956383 10.317312 1 9.1985805 1 8.0097656 C 1 6.8209507 1.2956383 5.702219 1.8164062 4.7226562 z " />
  <path
     id="path1004"
     style="color:#000000;fill:#bebebe;stroke-linecap:round;stroke-linejoin:round;stroke-miterlimit:0;stroke-dashoffset:2078.74;-inkscape-stroke:none;opacity:1"
     d="M 13.648438 2.3515625 L 12.945312 3.0546875 C 14.214218 4.3210827 15 6.0713111 15 8.0097656 C 15 11.88166 11.871895 15.009766 8 15.009766 C 6.0844692 15.009766 4.3525698 14.242525 3.0898438 13 L 9 13 C 11.755493 13 14 10.755493 14 8 C 14 6.3677 13.209044 4.9191777 11.994141 4.0058594 L 11.28125 4.71875 C 12.319443 5.4393432 13 6.6353133 13 8 C 13 10.045684 11.477621 11.722019 9.5 11.966797 L 9.5 6.5 L 8.5 7.5 L 8.5 11.966797 C 7.3450713 11.823847 6.3486519 11.191065 5.7167969 10.283203 L 5.0078125 10.992188 C 5.2930368 11.371716 5.624496 11.714872 6.0039062 12 L 4 12 L 2.3417969 13.658203 C 3.7906411 15.10954 5.7913438 16.009766 8 16.009766 C 12.412334 16.009766 16 12.4221 16 8.0097656 C 16 5.8011094 15.099774 3.8004067 13.648438 2.3515625 z " />
</svg>
